modules/feather/icons/arrow-up-circle.svg

<?xml version="1.0" encoding="UTF-8"?>
<svg width="24px" height="24px" viewBox="0 0 24 24" version="1.1" xmlns="http://www.w3.org/2000/svg" xmlns:xlink="http://www.w3.org/1999/xlink">
    <g id="arrow-up-circle" fill-rule="evenodd">
        <path d="M13,10.4142136 L13,16 C13,16.5522847 12.5522847,17 12,17 C11.4477153,17 11,16.5522847 11,16 L11,10.4142136 L8.70710678,12.7071068 C8.31658249,13.0976311 7.68341751,13.0976311 7.29289322,12.7071068 C6.90236893,12.3165825 6.90236893,11.6834175 7.29289322,11.2928932 L11.2928932,7.29289322 C11.6834175,6.90236893 12.3165825,6.90236893 12.7071068,7.29289322 L16.7071068,11.2928932 C17.0976311,11.6834175 17.0976311,12.3165825 16.7071068,12.7071068 C16.3165825,13.0976311 15.6834175,13.0976311 15.2928932,12.7071068 L13,10.4142136 Z M12,23 C5.92486775,23 1,18.0751322 1,12 C1,5.92486775 5.92486775,1 12,1 C18.0751322,1 23,5.92486775 23,12 C23,18.0751322 18.0751322,23 12,23 Z M12,21 C16.9705627,21 21,16.9705627 21,12 C21,7.02943725 16.9705627,3 12,3 C7.02943725,3 3,7.02943725 3,12 C3,16.9705627 7.02943725,21 12,21 Z" id="Combined-Shape" fill="#000000" fill-rule="nonzero"></path>
    </g>
</svg>

<svg width="24" height="24" viewBox="0 0 24 24" xmlns="http://www.w3.org/2000/svg"><path d="M13 10.414V16a1 1 0 0 1-2 0v-5.586l-2.293 2.293a1 1 0 1 1-1.414-1.414l4-4a1 1 0 0 1 1.414 0l4 4a1 1 0 0 1-1.414 1.414L13 10.414zM12 23C5.925 23 1 18.075 1 12S5.925 1 12 1s11 4.925 11 11-4.925 11-11 11zm0-2a9 9 0 1 0 0-18 9 9 0 0 0 0 18z" fill-rule="nonzero"/></svg>
